<?xml version="1.0" encoding="UTF-8"?>
<map version="1.10" tiledversion="1.11.2" orientation="orthogonal" renderorder="right-down" width="14" height="11" tilewidth="8" tileheight="8" infinite="0" nextlayerid="2" nextobjectid="1">
 <tileset firstgid="1" source="jnb_tileset.tsx"/>
 <layer id="1" name="Tile Layer 1" width="14" height="11">
  <data encoding="csv">
2,2,2,2,2,2,2,2,2,2,2,2,2,2,
2,2,2,2,2,2,2,2,2,2,2,2,2,2,
2,2,2,2,2,2,2,2,2,2,2,2,2,2,
2,2,2,2,2,2,2,2,2,2,2,2,2,2,
2,2,2,2,2,1,1,1,2,2,2,2,2,2,
2,2,2,2,1,1,1,1,2,2,2,2,2,2,
2,2,2,2,2,2,2,2,2,1,1,2,2,2,
1,1,2,2,2,2,2,2,2,2,2,1,2,2,
2,2,2,2,2,2,2,2,2,2,2,2,2,2,
2,2,2,2,2,2,2,2,2,2,2,2,2,2,
6,6,6,3,1,1,1,1,1,1,1,1,1,3
</data>
 </layer>
</map>
